symbolic/64x64/places/folder-bluegrey-visiting.svg

<svg xmlns="http://www.w3.org/2000/svg" width="64" height="64" version="1"><rect style="opacity:.2" width="56" height="36" x="4" y="22" rx="2.8" ry="2.8"/><path style="fill:#4d646f" d="M4 46.2C4 47.751 5.249 49 6.8 49h50.4c1.551 0 2.8-1.249 2.8-2.8V15.8c0-1.551-1.249-2.8-2.8-2.8H32c-4.2 0-5.6-6-9.8-6H6.8A2.794 2.794 0 0 0 4 9.8"/><rect style="opacity:.2" width="56" height="36" x="4" y="20" rx="2.8" ry="2.8"/><rect style="fill:#e4e4e4" width="48" height="22" x="8" y="16" rx="2.8" ry="2.8"/><rect style="fill:#607d8b" width="56" height="36" x="4" y="21" rx="2.8" ry="2.8"/><path style="opacity:.1;fill:#fff" d="M6.8 7C5.25 7 4 8.25 4 9.8v1.001A2.795 2.795 0 0 1 6.8 8H22.2c4.2 0 5.601 6 9.801 6h25.199A2.796 2.796 0 0 1 60 16.801v-1A2.796 2.796 0 0 0 57.199 13H32c-4.2 0-5.601-6-9.801-6z"/><path style="fill:#222c31" d="M6.8 21C5.25 21 4 22.25 4 23.801v1.508l54.404 31.41A2.789 2.789 0 0 0 60 54.199v-2.558L6.93 21H6.8zm10.524 0L60 45.639v-6L27.715 21H17.324zm20.783 0L60 33.641v-6L48.498 21H38.107zM4 31.311v6L38.105 57h10.393L4 31.311zm0 12v6L17.318 57h10.393L4 43.311z"/></svg>

<svg xmlns="http://www.w3.org/2000/svg" width="64" height="64" version="1">
 <rect style="opacity:0.2" width="56" height="36" x="4" y="22" rx="2.8" ry="2.8"/>
 <path style="fill:#4d646f" d="M 4,46.2 C 4,47.751 5.2488,49 6.8,49 H 57.2 C 58.751,49 60,47.751 60,46.2 V 15.8 C 60,14.249 58.751,13 57.2,13 H 32 C 27.8,13 26.4,7 22.2,7 H 6.8 C 5.2488,7 4,8.2488 4,9.8"/>
 <rect style="opacity:0.2" width="56" height="36" x="4" y="20" rx="2.8" ry="2.8"/>
 <rect style="fill:#e4e4e4" width="48" height="22" x="8" y="16" rx="2.8" ry="2.8"/>
 <rect style="fill:#607d8b" width="56" height="36" x="4" y="21" rx="2.8" ry="2.8"/>
 <path style="opacity:0.1;fill:#ffffff" d="M 6.8008,7 C 5.2496,7 4,8.2496 4,9.8008 V 10.801 C 4,9.2496 5.2496,8 6.8008,8 H 22.199 C 26.399,8 27.8,14 32,14 H 57.199 C 58.75,14 60,15.25 60,16.801 V 15.801 C 60,14.25 58.75,13 57.199,13 H 32 C 27.8,13 26.399,7 22.199,7 Z"/>
 <path style="fill:#222c31" d="M 6.8008 21 C 5.2496 21 4 22.25 4 23.801 L 4 25.309 L 58.404 56.719 C 59.346 56.269 60 55.316 60 54.199 L 60 51.641 L 6.9297 21 L 6.8008 21 z M 17.324 21 L 60 45.639 L 60 39.639 L 27.715 21 L 17.324 21 z M 38.107 21 L 60 33.641 L 60 27.641 L 48.498 21 L 38.107 21 z M 4 31.311 L 4 37.311 L 38.105 57 L 48.498 57 L 4 31.311 z M 4 43.311 L 4 49.311 L 17.318 57 L 27.711 57 L 4 43.311 z"/>
</svg>
